webapp/src/assets/icons/cloudproviders/aws/architecture_services/dynamodb.svg

<?xml version="1.0" encoding="UTF-8"?>
<svg width="24px" height="24px" viewBox="0 0 24 24" version="1.1" xmlns="http://www.w3.org/2000/svg" xmlns:xlink="http://www.w3.org/1999/xlink">
    <title>Icon-Architecture/16/Arch_Amazon-DynamoDB_16</title>
    <g id="Icon-Architecture/16/Arch_Amazon-DynamoDB_16" stroke="none" stroke-width="1" fill="none" fill-rule="evenodd">
        <path d="M14.3871979,13.0634319 L15.4218955,9.61738691 C15.468467,9.46474602 15.4391067,9.29896386 15.3439388,9.17058378 C15.2487709,9.04220369 15.0979197,8.96739955 14.9379567,8.96739955 L14.2383715,8.96739955 L15.2507958,6.94566591 L17.7798316,6.94566591 L16.9881159,9.313116 C16.9374946,9.46676775 16.9628052,9.63659338 17.0589856,9.76800607 C17.153141,9.90042962 17.3060171,9.97826636 17.4690174,9.97826636 L18.095708,9.97826636 L14.3871979,13.0634319 Z M19.9697053,9.29997473 C19.8968108,9.10083397 19.7074875,8.96739955 19.4938659,8.96739955 L18.1706274,8.96739955 L18.9623432,6.59994946 C19.0129644,6.4462977 18.9876538,6.27647207 18.8914735,6.14404852 C18.7963056,6.01263584 18.644442,5.93479909 18.4814417,5.93479909 L14.9379567,5.93479909 C14.7455961,5.93479909 14.5714591,6.04296184 14.485403,6.21379833 L12.9667666,9.24639879 C12.88881,9.40308314 12.8958969,9.58908264 12.9880275,9.73768006 C13.0811706,9.88728835 13.2441709,9.97826636 13.4193203,9.97826636 L14.2576076,9.97826636 L12.9343691,14.3816022 C12.8705863,14.595906 12.9536051,14.8253728 13.1409036,14.9486985 C13.2259472,15.0042962 13.3221275,15.0326005 13.4193203,15.0326005 C13.5347366,15.0326005 13.6491406,14.9931766 13.743296,14.9153399 L19.8178417,9.86100581 C19.980842,9.72453879 20.0425999,9.50113723 19.9697053,9.29997473 L19.9697053,9.29997473 Z M14.8346894,17.6285064 C14.8346894,18.0904726 13.2775809,18.9891332 10.4235568,18.9891332 C7.56953281,18.9891332 6.01242428,18.0904726 6.01242428,17.6285064 L6.01242428,16.562042 C7.04914673,17.1786707 8.74293255,17.495072 10.4235568,17.495072 C12.1041811,17.495072 13.797967,17.1786707 14.8346894,16.562042 L14.8346894,17.6285064 Z M14.8346894,15.1235785 C14.8346894,15.5855446 13.2775809,16.4842052 10.4235568,16.4842052 C7.56953281,16.4842052 6.01242428,15.5855446 6.01242428,15.1235785 C6.01242428,15.0275461 6.08633125,14.9133182 6.21187186,14.7950468 C7.21214704,15.316654 8.74698225,15.6239575 10.4235568,15.6239575 C10.4438053,15.6239575 11.9948393,15.5916098 11.9948393,15.5916098 L11.9948393,14.580743 C11.9745908,14.580743 10.4235568,14.6130907 10.4235568,14.6130907 C8.77128043,14.6130907 7.24656947,14.2886025 6.44574187,13.7680061 C6.17542458,13.5900935 6.0134367,13.3980288 6.01242428,13.252464 L6.01242428,12.1859995 C7.04914673,12.8026283 8.74293255,13.1200404 10.4235568,13.1200404 C10.6898244,13.1200404 11.8348763,13.0391711 12.1922621,13.0138994 L12.213523,12.5054334 L12.1203799,12.0050543 C11.7761557,12.0293151 10.6786878,12.1091736 10.4235568,12.1091736 C7.56953281,12.1091736 6.01242428,11.2095021 6.01242428,10.747536 C6.01242428,10.6474602 6.09139337,10.5281779 6.22503337,10.405863 C7.01877401,10.7566338 8.57183285,11.1508719 12.3178027,11.1963609 L12.3299518,10.1854941 C9.27951741,10.1491029 7.3437622,9.88223402 6.44574187,9.39095274 C6.17542458,9.21304018 6.0134367,9.02097549 6.01242428,8.87541066 L6.01242428,7.80995704 C7.04914673,8.4265858 8.74293255,8.74298711 10.4235568,8.74298711 C10.5015135,8.74298711 12.480803,8.70659591 12.5587596,8.70356331 L12.5152254,7.69370735 C12.4079084,7.69775082 10.5187247,7.73212029 10.4235568,7.73212029 C7.56953281,7.73212029 6.01242428,6.83345969 6.01242428,6.37149356 C6.01242428,5.90952742 7.56953281,5.01086682 10.4235568,5.01086682 C11.7447705,5.01086682 13.0001766,5.21809452 13.8668118,5.5809957 L14.25862,4.64796563 C13.2573324,4.23047763 11.8956217,4 10.4235568,4 C7.72949585,4 5.00101242,4.81374779 5,6.36947182 L5,8.88147587 C5,8.88147587 5.09213061,9.46070255 5.40092001,9.80742987 C5.08808091,10.1551681 5,10.4938084 5,10.7465251 L5,13.2625727 C5.00101242,13.510235 5.09213061,13.8438211 5.39788274,14.1875158 C5.08808091,14.5342431 5,14.8718726 5,15.1235785 L5,17.6335608 C5.00506212,19.1872631 7.7315207,20 10.4235568,20 C13.1186303,20 15.8471137,19.1862522 15.8471137,17.6305282 L15.8471137,15.1235785 L14.8346894,15.1235785 Z" id="Amazon-DynamoDB_Icon_16_Squid" fill="#C925D1"></path>
    </g>
</svg>

<svg width="24" height="24" xmlns="http://www.w3.org/2000/svg"><path d="m14.387 13.063 1.035-3.446a.504.504 0 0 0-.484-.65h-.7l1.013-2.021h2.529l-.792 2.367a.504.504 0 0 0 .071.455c.094.132.247.21.41.21h.627l-3.709 3.085ZM19.97 9.3a.506.506 0 0 0-.476-.333H18.17l.791-2.367a.506.506 0 0 0-.48-.665h-3.544a.506.506 0 0 0-.453.279l-1.518 3.032a.505.505 0 0 0 .452.732h.839l-1.324 4.404a.505.505 0 0 0 .81.533l6.074-5.054a.506.506 0 0 0 .152-.561Zm-5.135 8.329c0 .461-1.557 1.36-4.411 1.36-2.854 0-4.412-.899-4.412-1.36v-1.067c1.037.617 2.73.933 4.412.933 1.68 0 3.374-.316 4.41-.933v1.067Zm0-2.505c0 .462-1.557 1.36-4.411 1.36-2.854 0-4.412-.898-4.412-1.36 0-.096.074-.21.2-.329 1 .522 2.535.829 4.212.829l1.57-.032V14.58l-1.57.032c-1.653 0-3.177-.324-3.978-.845-.27-.178-.433-.37-.434-.516v-1.066c1.037.617 2.73.934 4.412.934.266 0 1.41-.08 1.768-.106l.022-.509-.094-.5c-.344.024-1.441.104-1.696.104-2.854 0-4.412-.9-4.412-1.361 0-.1.08-.22.213-.342.794.35 2.347.745 6.093.79l.012-1.01c-3.05-.037-4.986-.304-5.884-.795-.27-.178-.433-.37-.434-.516V7.81c1.037.617 2.73.933 4.412.933.078 0 2.057-.036 2.135-.04l-.044-1.01c-.107.005-1.996.04-2.091.04-2.854 0-4.412-.9-4.412-1.362 0-.461 1.558-1.36 4.412-1.36 1.32 0 2.576.207 3.443.57l.392-.933C13.257 4.23 11.896 4 10.424 4 7.729 4 5 4.814 5 6.37v2.51s.092.58.4.926c-.312.348-.4.687-.4.94v2.516c.001.247.092.58.398.925-.31.346-.398.684-.398.936v2.51C5.005 19.187 7.732 20 10.424 20c2.695 0 5.423-.814 5.423-2.37v-2.506h-1.012Z" fill="#C925D1" fill-rule="evenodd"/></svg>
